.local/share/icons/Gruvbox-Plus-Dark/actions/16/vmware-datacenter.svg

<svg width="16" height="16" version="1.1" xmlns="http://www.w3.org/2000/svg">
  <defs>
    <style id="current-color-scheme" type="text/css">.ColorScheme-Text { color:#ebdbb2; } .ColorScheme-Highlight { color:#458588; }</style>
  </defs>
  <path class="ColorScheme-Text" d="m0 1v14h16v-10h-8v-4zm1 2h2v2h-2zm4 0h2v2h-2zm-4 4h2v2h-2zm4 0h2v2h-2zm4 0h2v2h-2zm4 0h2v2h-2zm-12 4h2v2h-2zm4 0h2v2h-2zm4 0h2v2h-2zm4 0h2v2h-2z" fill="currentColor"/>
</svg>

<svg xmlns="http://www.w3.org/2000/svg" width="16" height="16" version="1.1">
 <defs>
  <style id="current-color-scheme" type="text/css">
   .ColorScheme-Text { color:#555555; } .ColorScheme-Highlight { color:#4285f4; } .ColorScheme-NeutralText { color:#ff9800; } .ColorScheme-PositiveText { color:#4caf50; } .ColorScheme-NegativeText { color:#f44336; }
  </style>
 </defs>
 <path style="fill:currentColor" class="ColorScheme-Text" d="m 0,1 v 14 h 8 8 V 5 H 8 V 1 Z M 1,3 H 3 V 5 H 1 Z M 5,3 H 7 V 5 H 5 Z M 1,7 H 3 V 9 H 1 Z M 5,7 H 7 V 9 H 5 Z m 4,0 h 2 V 9 H 9 Z m 4,0 h 2 V 9 H 13 Z M 1,11 h 2 v 2 H 1 Z m 4,0 h 2 v 2 H 5 Z m 4,0 h 2 v 2 H 9 Z m 4,0 h 2 v 2 h -2 z"/>
</svg>
